X: 1
T: Frenchie's Reel   [D]
O: Trad
Z: 1999 John Chambers <jc:trillian.mit.edu>
M: C|
L: 1/8
K: D
AG \
| "D"FAde f2AG | FAde f2ed | "A7"cAeA gAeA |1,3 cAeA g2AG :|2,4 "D"dcde d2 :|
|: AG \
| "D"~F2dF AdFA | dFAd- dFAd | "G"~G2dG BdGB | "(em)"dGBd- dGBd |
| "A7"~A2eA ceAc | gAcf- fAeA | "D"dcdf "A7"edce | "D"dcde d2 :|
